src/images/svg/24.svg

<?xml version="1.0" encoding="UTF-8"?>
<svg fill="none" viewBox="0 0 112 128" xmlns="http://www.w3.org/2000/svg">
<path d="m55.306 0.1245-54 20c-0.79861 0.2958-1.3223 1.0649-1.3054 1.9163 1.3868 67.934 15.429 95.878 55.515 105.9 0.3185 0.08 0.6517 0.08 0.9702 0l2.4218-0.636c38.232-10.542 51.735-38.716 53.093-105.26 0.017-0.8514-0.506-1.6205-1.305-1.9163l-54-20c-0.4482-0.166-0.941-0.166-1.3892 0zm0.6906 4.0035 51.972 19.248-0.013 0.6222c-1.566 64.165-14.629 90.136-51.275 99.763l-0.68 0.171-0.68-0.171c-36.256-9.525-49.428-35.047-51.221-97.728l-0.07117-2.6571 51.968-19.248zm-18.612 51.872c1.9787 0 3.752 0.2893 5.32 0.868s2.884 1.3813 3.948 2.408 1.876 2.2493 2.436 3.668 0.84 2.968 0.84 4.648c0 1.568-0.2427 3.024-0.728 4.368s-1.1573 2.6133-2.016 3.808-1.8573 2.3333-2.996 3.416-2.3427 2.184-3.612 3.304l-9.184 7.896h19.712v5.376h-26.544v-6.048l12.488-11.144 0.7206-0.6681c1.6312-1.5496 2.9124-3.0349 3.8434-4.4559 1.064-1.624 1.596-3.332 1.596-5.124v-0.728l-0.0171-0.5589c-0.1025-1.6397-0.6661-2.9467-1.6909-3.9211-1.1387-1.0827-2.6787-1.624-4.62-1.624-1.0827 0-2.0253 0.1587-2.828 0.476s-1.5027 0.756-2.1 1.316-1.092 1.2133-1.484 1.96-0.7 1.5493-0.924 2.408l-5.544-2.128 0.2643-0.7336c0.3763-0.9707 0.8482-1.9115 1.4157-2.8224 0.7093-1.1387 1.6053-2.156 2.688-3.052s2.3613-1.6053 3.836-2.128 3.2013-0.784 5.18-0.784zm43.12 0.672v26.488h5.32v4.984h-5.32v7.616h-5.992v-7.616h-18.144v-5.432l15.848-26.04h8.288zm-5.992 5.768h-0.392l-12.376 20.72h12.768v-20.72zm-2.8135-14.624c0.781 0.7811 0.781 2.0474 0 2.8285-0.7811 0.781-2.0474 0.781-2.8284 0-7.0295-7.0295-18.426-7.0295-25.456 0-0.781 0.781-2.0474 0.781-2.8284 0-0.7811-0.7811-0.7811-2.0474 0-2.8285 8.5915-8.5915 22.521-8.5915 31.113 0zm10.627-8c0.781 0.7811 0.781 2.0474 0 2.8285-0.7811 0.781-2.0474 0.781-2.8284 0-13.278-13.278-34.806-13.278-48.083 0-0.781 0.781-2.0474 0.781-2.8284 0-0.7811-0.7811-0.7811-2.0474 0-2.8285 14.84-14.84 38.9-14.84 53.74 0zm10.627-8c0.7811 0.7811 0.7811 2.0474 0 2.8285-0.781 0.781-2.0474 0.781-2.8284 0-19.526-19.526-51.184-19.526-70.711 0-0.781 0.781-2.0474 0.781-2.8284 0-0.7811-0.7811-0.7811-2.0474 0-2.8285 21.088-21.088 55.279-21.088 76.368 0z" clip-rule="evenodd" fill="url(#a)" fill-rule="evenodd"/>
<defs>
<linearGradient id="a" x1="13.124" x2="113.74" y1="128" y2="13.008" gradientUnits="userSpaceOnUse">
<stop stop-color="#FF444F" offset="0"/>
<stop stop-color="#FF6444" offset="1"/>
</linearGradient>
</defs>
</svg>

<svg width="112" height="128" viewBox="0 0 112 128" fill="none" xmlns="http://www.w3.org/2000/svg">
<path fill-rule="evenodd" clip-rule="evenodd" d="M55.3058 0.124502L1.30577 20.1245C0.507158 20.4203 -0.0165571 21.1894 0.000399895 22.0408C1.38722 89.9745 15.4296 117.919 55.5153 127.94C55.8338 128.02 56.167 128.02 56.4855 127.94L58.9073 127.304C97.1391 116.762 110.642 88.5881 112 22.0408C112.017 21.1894 111.494 20.4203 110.695 20.1245L56.695 0.124502C56.2468 -0.0415008 55.754 -0.0415008 55.3058 0.124502ZM55.9964 4.128L107.968 23.376L107.955 23.9982C106.389 88.1633 93.3264 114.134 56.6804 123.761L56.0004 123.932L55.3204 123.761C19.0643 114.236 5.89286 88.714 4.09957 26.0331L4.0284 23.376L55.9964 4.128ZM37.3844 56C39.3631 56 41.1364 56.2893 42.7044 56.868C44.2724 57.4467 45.5884 58.2493 46.6524 59.276C47.7164 60.3027 48.5284 61.5253 49.0884 62.944C49.6484 64.3627 49.9284 65.912 49.9284 67.592C49.9284 69.16 49.6857 70.616 49.2004 71.96C48.7151 73.304 48.0431 74.5733 47.1844 75.768C46.3257 76.9627 45.3271 78.1013 44.1884 79.184C43.0497 80.2667 41.8457 81.368 40.5764 82.488L31.3924 90.384H51.1044V95.76H24.5604V89.712L37.0484 78.568L37.769 77.8999C39.4002 76.3503 40.6814 74.865 41.6124 73.444C42.6764 71.82 43.2084 70.112 43.2084 68.32V67.592L43.1913 67.0331C43.0888 65.3934 42.5252 64.0864 41.5004 63.112C40.3617 62.0293 38.8217 61.488 36.8804 61.488C35.7977 61.488 34.8551 61.6467 34.0524 61.964C33.2497 62.2813 32.5497 62.72 31.9524 63.28C31.3551 63.84 30.8604 64.4933 30.4684 65.24C30.0764 65.9867 29.7684 66.7893 29.5444 67.648L24.0004 65.52L24.2647 64.7864C24.641 63.8157 25.1129 62.8749 25.6804 61.964C26.3897 60.8253 27.2857 59.808 28.3684 58.912C29.4511 58.016 30.7297 57.3067 32.2044 56.784C33.6791 56.2613 35.4057 56 37.3844 56ZM80.5044 56.672V83.16H85.8244V88.144H80.5044V95.76H74.5124V88.144H56.3684V82.712L72.2164 56.672H80.5044ZM74.5124 62.44H74.1204L61.7444 83.16H74.5124V62.44ZM71.6989 47.8162C72.4799 48.5973 72.4799 49.8636 71.6989 50.6447C70.9178 51.4257 69.6515 51.4257 68.8705 50.6447C61.841 43.6152 50.444 43.6152 43.4146 50.6447C42.6336 51.4257 41.3672 51.4257 40.5862 50.6447C39.8051 49.8636 39.8051 48.5973 40.5862 47.8162C49.1777 39.2247 63.1073 39.2247 71.6989 47.8162ZM82.3263 39.8162C83.1073 40.5973 83.1073 41.8636 82.3263 42.6447C81.5452 43.4257 80.2789 43.4257 79.4979 42.6447C66.22 29.3668 44.6924 29.3668 31.4146 42.6447C30.6336 43.4257 29.3672 43.4257 28.5862 42.6447C27.8051 41.8636 27.8051 40.5973 28.5862 39.8162C43.4261 24.9763 67.4864 24.9763 82.3263 39.8162ZM92.9537 31.8162C93.7348 32.5973 93.7348 33.8636 92.9537 34.6447C92.1727 35.4257 90.9063 35.4257 90.1253 34.6447C70.5991 15.1184 38.9408 15.1184 19.4146 34.6447C18.6336 35.4257 17.3672 35.4257 16.5862 34.6447C15.8051 33.8636 15.8051 32.5973 16.5862 31.8162C37.6745 10.7279 71.8654 10.7279 92.9537 31.8162Z" fill="url(#paint0_linear)"/>
<defs>
<linearGradient id="paint0_linear" x1="13.1245" y1="128" x2="113.743" y2="13.0083" gradientUnits="userSpaceOnUse">
<stop stop-color="#FF444F"/>
<stop offset="1" stop-color="#FF6444"/>
</linearGradient>
</defs>
</svg>
